pp/magnet_print.svg

<svg viewBox="0 0 20 20" fill="none" xmlns="http://www.w3.org/2000/svg" height="1em" width="1em">
  <g clip-path="url(#a)">
    <g opacity="0.8">
      <path fill-rule="evenodd" clip-rule="evenodd" d="M8.13174 4.64646C8.327 4.4512 8.64358 4.4512 8.83884 4.64646L11.8693 7.67692C12.0646 7.87218 12.0646 8.18876 11.8693 8.38403L7.62666 12.6267C7.15245 13.1009 7.15245 13.8697 7.62666 14.3439C8.10087 14.8181 8.86971 14.8181 9.34392 14.3439L13.5866 10.1013C13.7818 9.90602 14.0984 9.90602 14.2937 10.1013L17.3241 13.1317C17.5194 13.327 17.5194 13.6436 17.3241 13.8388L13.0815 18.0815C10.5431 20.6199 6.42751 20.6199 3.8891 18.0815C1.35069 15.5431 1.35069 11.4275 3.8891 8.8891L8.13174 4.64646Z" fill="currentColor"/>
      <path fill-rule="evenodd" clip-rule="evenodd" d="M14.4012 8.4285C13.8884 8.22339 13.639 7.64142 13.8441 7.12864L15.1943 3.75317L16.7526 4.27261L17.5714 2.56719C17.8105 2.06932 18.4079 1.85949 18.9057 2.09853C19.4036 2.33757 19.6134 2.93496 19.3744 3.43283L17.7926 6.72744L16.3509 6.24688L15.7011 7.87142C15.496 8.3842 14.914 8.63362 14.4012 8.4285Z" fill="currentColor"/>
    </g>
    <path fill-rule="evenodd" clip-rule="evenodd" d="M7.13174 3.64646C7.327 3.4512 7.64358 3.4512 7.83884 3.64646L10.8693 6.67692C11.0646 6.87218 11.0646 7.18876 10.8693 7.38403L6.62666 11.6267C6.15245 12.1009 6.15245 12.8697 6.62666 13.3439C7.10087 13.8181 7.86971 13.8181 8.34392 13.3439L12.5866 9.10128C12.7818 8.90602 13.0984 8.90602 13.2937 9.10128L16.3241 12.1317C16.5194 12.327 16.5194 12.6436 16.3241 12.8388L12.0815 17.0815C9.54308 19.6199 5.42751 19.6199 2.8891 17.0815C0.350692 14.5431 0.350691 10.4275 2.8891 7.8891L7.13174 3.64646ZM7.48529 4.70712L3.59621 8.59621C1.44832 10.7441 1.44832 14.2265 3.59621 16.3744C5.74409 18.5223 9.2265 18.5223 11.3744 16.3744L15.2635 12.4853L12.9401 10.1619L9.05103 14.051C8.1863 14.9158 6.78429 14.9158 5.91955 14.051C5.05482 13.1863 5.05482 11.7843 5.91955 10.9196L9.80864 7.03047L7.48529 4.70712Z" fill="black"/>
    <path fill-rule="evenodd" clip-rule="evenodd" d="M7.48531 10.0608L4.45485 7.03038L5.16196 6.32327L8.19241 9.35373L7.48531 10.0608Z" fill="black"/>
    <path fill-rule="evenodd" clip-rule="evenodd" d="M12.9401 15.5157L9.90965 12.4852L10.6168 11.7781L13.6472 14.8086L12.9401 15.5157Z" fill="black"/>
    <path fill-rule="evenodd" clip-rule="evenodd" d="M12.5869 6.96424C12.3305 6.86169 12.2058 6.5707 12.3083 6.31431L13.4834 3.37658L15.0126 3.88629L16.0221 1.78358C16.1417 1.53465 16.4404 1.42973 16.6893 1.54925C16.9382 1.66877 17.0431 1.96746 16.9236 2.2164L15.5326 5.11371L14.0617 4.62343L13.2368 6.6857C13.1343 6.94209 12.8433 7.0668 12.5869 6.96424Z" fill="black"/>
  </g>
  <defs>
    <clipPath id="a">
      <rect width="20" height="20" fill="white"/>
    </clipPath>
  </defs>
</svg>

<svg viewBox="0 0 20 20" fill="none" xmlns="http://www.w3.org/2000/svg" height="1em" width="1em">
  <g clip-path="url(#a)" fill-rule="evenodd" clip-rule="evenodd">
    <path d="M8.132 4.646a.5.5 0 0 1 .707 0l3.03 3.03a.5.5 0 0 1 0 .708l-4.242 4.243a1.214 1.214 0 1 0 1.717 1.717l4.243-4.243a.5.5 0 0 1 .707 0l3.03 3.03a.5.5 0 0 1 0 .708l-4.243 4.242A6.5 6.5 0 0 1 3.89 8.89l4.243-4.243Zm6.269 3.782a1 1 0 0 1-.557-1.3l1.35-3.375 1.559.52.818-1.706a1 1 0 0 1 1.803.866l-1.581 3.294-1.442-.48-.65 1.624a1 1 0 0 1-1.3.557Z" opacity=".8" fill="currentColor"/>
    <path d="M7.132 3.646a.5.5 0 0 1 .707 0l3.03 3.03a.5.5 0 0 1 0 .708l-4.242 4.243a1.214 1.214 0 1 0 1.717 1.717L12.587 9.1a.5.5 0 0 1 .707 0l3.03 3.03a.5.5 0 0 1 0 .708l-4.243 4.242A6.5 6.5 0 0 1 2.89 7.89l4.243-4.243Zm.353 1.061-3.889 3.89a5.5 5.5 0 1 0 7.778 7.777l3.89-3.889-2.324-2.323-3.889 3.889A2.214 2.214 0 1 1 5.92 10.92l3.889-3.89-2.324-2.323Z" fill="#000"/>
    <path d="m7.485 10.06-3.03-3.03.707-.707 3.03 3.03-.707.708Zm5.455 5.456-3.03-3.03.707-.708 3.03 3.03-.707.708Zm-.353-8.552a.5.5 0 0 1-.279-.65l1.175-2.937 1.53.51 1.01-2.103a.5.5 0 0 1 .9.432l-1.39 2.898-1.471-.49-.825 2.062a.5.5 0 0 1-.65.278Z" fill="#000"/>
  </g>
  <defs>
    <clipPath id="a">
      <path fill="#fff" d="M0 0h20v20H0z"/>
    </clipPath>
  </defs>
</svg>
